src/assets/SquiggleLeft.svg

<svg width="169" height="115" viewBox="0 0 169 115" fill="none" xmlns="http://www.w3.org/2000/svg">
<g clip-path="url(#clip0_127_298)">
<path d="M38.8731 54.4012C42.147 67.9466 47.29 73.3308 55.9645 73.3091C63.4494 73.2918 71.1404 67.3449 72.7326 60.3493C74.477 52.7161 70.2804 47.5539 56.8763 41.7203C81.2333 28.8238 106.89 25.5439 134.504 23.3841C129.973 30.0464 122.436 31.6973 118.921 39.36C122.046 38.6683 123.83 38.6187 125.276 37.9018C133.248 33.9287 141.183 29.8605 149.042 25.6882C155.326 22.3477 156.047 18.668 150.681 13.6784C146.446 9.74953 141.365 6.7501 136.27 3.06357C132.67 9.48545 137.782 12.3917 140.12 16.0156C107.488 18.8892 75.3355 21.4325 47.3874 41.025C19.3479 60.6723 0.897964 87.0836 -10.7058 118.778C-11.3102 120.413 -10.8259 122.446 -9.88475 124.515C-3.93632 111.396 2.18172 98.6537 10.4824 87.1193C18.7795 75.5684 25.9024 63.0005 38.8731 54.4012ZM51.2979 49.4946C57.9289 47.958 64.8594 50.8932 66.2421 55.8155C67.3898 59.9098 63.5771 65.1364 58.4776 66.4203C52.8883 67.8298 47.6248 64.4739 46.3707 58.7294C45.2586 53.6265 46.9333 50.5123 51.2979 49.4946Z" fill="#B16E4B"/>
</g>
<defs>
<clipPath id="clip0_127_298">
<rect width="87" height="183.367" fill="white" transform="matrix(-0.216086 -0.976374 -0.976374 0.216086 168.835 84.9443)"/>
</clipPath>
</defs>
</svg>

<svg width="169" height="115" fill="none"><g clip-path="url(#a)"><path fill="#B16E4B" d="M38.873 54.401c3.274 13.546 8.417 18.93 17.092 18.908 7.484-.017 15.175-5.964 16.768-12.96 1.744-7.633-2.453-12.795-15.857-18.629 24.357-12.896 50.014-16.176 77.628-18.336-4.531 6.662-12.068 8.313-15.583 15.976 3.125-.692 4.909-.741 6.355-1.458a1040.137 1040.137 0 0 0 23.766-12.214c6.284-3.34 7.005-7.02 1.639-12.01-4.235-3.928-9.316-6.928-14.411-10.614-3.6 6.421 1.512 9.328 3.85 12.952-32.632 2.873-64.785 5.417-92.733 25.009C19.347 60.672.898 87.084-10.706 118.778c-.604 1.635-.12 3.668.821 5.737 5.949-13.119 12.067-25.861 20.367-37.396 8.297-11.55 15.42-24.118 28.391-32.718Zm12.425-4.906c6.63-1.537 13.561 1.398 14.944 6.32 1.148 4.095-2.665 9.321-7.764 10.605-5.59 1.41-10.853-1.946-12.107-7.69-1.112-5.103.562-8.218 4.927-9.235Z"/></g><defs><clipPath id="a"><path fill="#fff" d="M168.835 84.944 150.035 0-28.998 39.623l18.8 84.944z"/></clipPath></defs></svg>
